X:17
T:Vive Dieu - J37
C:G. de Courrges
M:6/4
L:1/4
K:G
"Sol"B,3 C3|D3- D2z|"Do"E3 "Si"F3|"Mim"G3- G2z|"Lam"c3 "Re"A3|"Sol"B3- "FIN"B GA|"Sol"B3 ABc|
B3 AGA|B3 ABc|B3 zGA|B3 Adc|("Si"B2A) "Mim"GGA|"Sol"B3 AGA|"Fa"A3- "Re"A2z||



